public/images/icons/puzzle.svg

<svg width="30" height="30" viewBox="0 0 30 30" fill="none" xmlns="http://www.w3.org/2000/svg">
<path fill-rule="evenodd" clip-rule="evenodd" d="M1.01386 1.01386C1.66303 0.364697 2.54348 0 3.46154 0H26.5385C27.4565 0 28.337 0.364697 28.9861 1.01386C29.6353 1.66302 30 2.54348 30 3.46154V26.5385C30 27.4565 29.6353 28.337 28.9861 28.9861C28.337 29.6353 27.4565 30 26.5385 30H3.46154C2.54348 30 1.66302 29.6353 1.01386 28.9861C0.364697 28.337 0 27.4565 0 26.5385V3.46154C0 2.54348 0.364697 1.66303 1.01386 1.01386ZM2.72727 16.3636V26.5385C2.72727 26.7332 2.80463 26.92 2.94233 27.0577C3.08004 27.1954 3.2668 27.2727 3.46154 27.2727H13.6364V24.1636C13.6364 23.6259 13.9524 23.1383 14.4433 22.9188C14.9342 22.6993 15.5083 22.7888 15.9091 23.1473C16.1657 23.3768 16.4832 23.5271 16.8234 23.5801C17.1635 23.6331 17.5117 23.5866 17.8259 23.446C18.1402 23.3055 18.4071 23.077 18.5943 22.7882C18.7816 22.4993 18.8812 22.1624 18.8812 21.8182C18.8812 21.4739 18.7816 21.1371 18.5943 20.8482C18.4071 20.5593 18.1402 20.3309 17.8259 20.1903C17.5117 20.0498 17.1635 20.0032 16.8234 20.0562C16.4832 20.1093 16.1657 20.2596 15.9091 20.4891C15.5083 20.8476 14.9342 20.9371 14.4433 20.7176C13.9524 20.498 13.6364 20.0105 13.6364 19.4727V16.3636H12.6321C12.6343 16.3769 12.6364 16.3901 12.6385 16.4033C12.7726 17.2637 12.6548 18.1444 12.2993 18.9393C11.9439 19.7342 11.366 20.4092 10.6353 20.8828C9.90467 21.3564 9.05255 21.6085 8.18182 21.6085C7.31109 21.6085 6.45897 21.3564 5.72833 20.8828C4.99768 20.4092 4.41975 19.7342 4.06429 18.9393C3.70883 18.1444 3.59104 17.2637 3.72514 16.4033C3.7272 16.3901 3.72933 16.3769 3.73151 16.3636H2.72727ZM13.6364 13.6364H10.5273C9.98951 13.6364 9.50197 13.9524 9.28244 14.4433C9.06291 14.9342 9.15239 15.5083 9.51091 15.9091C9.74041 16.1657 9.89075 16.4832 9.94376 16.8234C9.99678 17.1635 9.95021 17.5117 9.80968 17.8259C9.66915 18.1402 9.44066 18.4071 9.1518 18.5943C8.86294 18.7816 8.52606 18.8812 8.18182 18.8812C7.83758 18.8812 7.50069 18.7816 7.21183 18.5943C6.92298 18.4071 6.69449 18.1402 6.55396 17.8259C6.41343 17.5117 6.36686 17.1635 6.41988 16.8234C6.47289 16.4832 6.62322 16.1657 6.85273 15.9091C7.21125 15.5083 7.30073 14.9342 7.0812 14.4433C6.86167 13.9524 6.37412 13.6364 5.83636 13.6364H2.72727V3.46154C2.72727 3.2668 2.80463 3.08004 2.94233 2.94233C3.08004 2.80463 3.2668 2.72727 3.46154 2.72727H13.6364V3.73151C13.6231 3.72933 13.6099 3.7272 13.5967 3.72514C12.7363 3.59104 11.8556 3.70883 11.0607 4.06429C10.2658 4.41975 9.59083 4.99769 9.11719 5.72833C8.64356 6.45897 8.39153 7.31109 8.39153 8.18182C8.39153 9.05255 8.64356 9.90466 9.11719 10.6353C9.59083 11.366 10.2658 11.9439 11.0607 12.2993C11.8556 12.6548 12.7363 12.7726 13.5967 12.6385C13.6099 12.6364 13.6231 12.6343 13.6364 12.6321V13.6364ZM16.3636 16.3636V17.3679C16.3769 17.3657 16.3901 17.3636 16.4033 17.3615C17.2637 17.2274 18.1444 17.3452 18.9393 17.7007C19.7342 18.0561 20.4092 18.634 20.8828 19.3647C21.3564 20.0953 21.6085 20.9475 21.6085 21.8182C21.6085 22.6889 21.3564 23.541 20.8828 24.2717C20.4092 25.0023 19.7342 25.5802 18.9393 25.9357C18.1444 26.2912 17.2637 26.409 16.4033 26.2749C16.3901 26.2728 16.3769 26.2707 16.3636 26.2685V27.2727H26.5385C26.7332 27.2727 26.92 27.1954 27.0577 27.0577C27.1954 26.92 27.2727 26.7332 27.2727 26.5385V16.3636H24.1636C23.6259 16.3636 23.1383 16.0476 22.9188 15.5567C22.6993 15.0658 22.7888 14.4917 23.1473 14.0909C23.3768 13.8343 23.5271 13.5168 23.5801 13.1766C23.6331 12.8365 23.5866 12.4883 23.446 12.1741C23.3055 11.8598 23.077 11.5929 22.7882 11.4057C22.4993 11.2184 22.1624 11.1188 21.8182 11.1188C21.4739 11.1188 21.1371 11.2184 20.8482 11.4057C20.5593 11.5929 20.3309 11.8598 20.1903 12.1741C20.0498 12.4883 20.0032 12.8365 20.0562 13.1766C20.1093 13.5168 20.2596 13.8343 20.4891 14.0909C20.8476 14.4917 20.9371 15.0658 20.7176 15.5567C20.498 16.0476 20.0105 16.3636 19.4727 16.3636H16.3636ZM27.2727 13.6364V3.46154C27.2727 3.2668 27.1954 3.08004 27.0577 2.94233C26.92 2.80463 26.7332 2.72727 26.5385 2.72727H16.3636V5.83636C16.3636 6.37412 16.0476 6.86167 15.5567 7.0812C15.0658 7.30073 14.4917 7.21125 14.0909 6.85273C13.8343 6.62322 13.5168 6.47289 13.1766 6.41988C12.8365 6.36686 12.4883 6.41343 12.1741 6.55396C11.8598 6.69449 11.5929 6.92298 11.4057 7.21183C11.2184 7.50069 11.1188 7.83758 11.1188 8.18182C11.1188 8.52606 11.2184 8.86294 11.4057 9.1518C11.5929 9.44066 11.8598 9.66915 12.1741 9.80968C12.4883 9.95021 12.8365 9.99678 13.1766 9.94376C13.5168 9.89075 13.8343 9.74041 14.0909 9.51091C14.4917 9.15239 15.0658 9.06291 15.5567 9.28244C16.0476 9.50197 16.3636 9.98951 16.3636 10.5273V13.6364H17.3679C17.3657 13.6231 17.3636 13.6099 17.3615 13.5967C17.2274 12.7363 17.3452 11.8556 17.7007 11.0607C18.0561 10.2658 18.6341 9.59083 19.3647 9.11719C20.0953 8.64356 20.9475 8.39153 21.8182 8.39153C22.6889 8.39153 23.541 8.64356 24.2717 9.11719C25.0023 9.59083 25.5802 10.2658 25.9357 11.0607C26.2912 11.8556 26.409 12.7363 26.2749 13.5967C26.2728 13.6099 26.2707 13.6231 26.2685 13.6364H27.2727Z" fill="#0B80C5"/>
</svg>

<svg xmlns="http://www.w3.org/2000/svg" width="30" height="30" fill="none"><path fill="#0B80C5" fill-rule="evenodd" d="M1.014 1.014A3.462 3.462 0 0 1 3.462 0h23.076A3.461 3.461 0 0 1 30 3.462v23.076A3.461 3.461 0 0 1 26.538 30H3.462A3.461 3.461 0 0 1 0 26.538V3.462c0-.919.365-1.799 1.014-2.448Zm1.713 15.35v10.174a.734.734 0 0 0 .735.735h10.174v-3.11a1.364 1.364 0 0 1 2.273-1.016 1.783 1.783 0 1 0 0-2.658 1.364 1.364 0 0 1-2.273-1.016v-3.11h-1.004l.007.04a4.51 4.51 0 1 1-8.907-.04H2.727Zm10.91-2.728h-3.11a1.364 1.364 0 0 0-1.016 2.273 1.783 1.783 0 1 1-2.658 0 1.364 1.364 0 0 0-1.017-2.273H2.727V3.462a.734.734 0 0 1 .735-.735h10.174v1.005a4.51 4.51 0 1 0-.04 8.907l.04-.007v1.004Zm2.727 2.728v1.004l.04-.006a4.51 4.51 0 1 1 0 8.913l-.04-.006v1.004h10.174a.734.734 0 0 0 .735-.735V16.364h-3.11a1.364 1.364 0 0 1-1.016-2.273 1.783 1.783 0 1 0-2.658 0 1.364 1.364 0 0 1-1.016 2.273h-3.11Zm10.909-2.728V3.462a.734.734 0 0 0-.735-.735H16.364v3.11a1.364 1.364 0 0 1-2.273 1.016 1.783 1.783 0 1 0 0 2.658 1.364 1.364 0 0 1 2.273 1.016v3.11h1.004l-.006-.04a4.51 4.51 0 1 1 8.913 0l-.006.04h1.004Z" clip-rule="evenodd"/></svg>
